X: 2087
T:Hills of Glenorchy
C:anon.
O:Ireland
R:Jig
Z:Transcribed by Frank Nordberg - http://www.musicaviva.com
M:6/8
L:1/8
K:Em
d|"Em"B2E EFE|"Em"BAB d2B|"D"A2D DED|"D"AFD FAd|\
"Em"B2E EFE|"Em"BAB d2e|"Bm"dBd AFD|"Em"EFE E2::B|\
"Em"efe edB|"Em"efg f2e|"D"ded dAF|"D"dfe dAF|\
"Em"efe edB|"Em"efg f2e|"Bm"dBd AFD|"Em"E3 e2:|
